X: 1
T: From Galway To Dublin
M: 4/4
L: 1/8
R: hornpipe
K: Edor
B,D|:~E3F EDB,D|GFGB A3A|Bdgf edBA|GE~E2 D2B,D|
~E3F EDB,D|GFGB (3ABA GA|(3Bcd gf edBA|1GEED EFGF:|2GEED E2(3Bcd||
|:ezed B2BA|GFGB d2 Bd|efed BdBA|GE~E2 D2B,D|
~E3F EDB,D|GFGB (3ABA GA|(3Bcd gf edBA|1GEED E2(3Bcd:|2GEED EFGF||
